!! 00006] TT[TB
!! Eigene Aufnahme
!!!OTL: Siji hua'r kai, Dui chang)
!!!ARE: Asia, China,ˇHunan, Sangzhi
!! Ethnic Group: Han
!! I, 574
!!!SCT: C1394
!!!YEM: Copyright 1995, estate of Helmut Schaffrath.
**kern
*ICvox
*Ivox
*M4/4
*k[b-]
*F:
{8f
8g
8f
8d
2cc
=1
8ff
16dd
16cc
16a
16g
16cc
16a
2g}
=2
{8g
16g
16a
8dd
16dd
16dd
8cc
16a
16g
16g
16f
16d
16c
=3
16a
16a
16f
16a
16g
16f
8d
16c
8c
16d
8c}
{16eexx
=4
8cc
16cc
8dxxx
8cc
16cc
8dxxx}
{8f
16g
16a
16g
16f
8d
16a
16cc
16g
16a
4cc
=5
16ff
16ff
16dd
16cc
16a
16g
16cc
16a
16g
16a
16f
16a
4g}
=6
{8cc
16cc
16d
4r
8cc
16cc
16d
8r}
{16g
16f
=7
16cc
16dd
16a
16g
16cc
16dd
16a
16g
16f
16g
16a
16cc
8.g
16a
=8
8.f
16a
16g
16f
8d
2c}
==
!!!AGN: Xiaodiao, MengjiangnÅ diao. Chang hua niao
!! Doublette zu  C0136. Saengerin: Huang Bai
!!    Wenig Verzierungen. Die Rhythm-notation enthaelt Zungenschnalzen.
!!    VARIANTE. Kleinere glissandi.
!!!ONB: ESAC (Essen Associative Code) Database: CHINA
!!!AMT: simple quadruple
!!!AIN: vox
!!!EED: Helmut Schaffrath
!!!EEV: 1.0
*-
!!!OTL: Yiujiang
!!!ARE: Asia, China,ˇHubei, Zigui
!! I, 467
!!!SCT: C1463
!!!YEM: Copyright 1995, estate of Helmut Schaffrath.
**kern
*ICvox
*Ivox
*M4/4
*k[]
*C:
{16ee
16ee
4.ee
8dd
16ee
16dd
8cc
8a
=1
2ee
8dd
8cc
4a}
=2
{8ee
8dd
4ee
8dd
16ee
16dd
8cc
8dd
=3
2cc
8dd
8cc
4a}
=4
{4a
4cc
8dd
8dd
4a
=5
2cc
8dd
8cc
4a}
=6
{8ee
8ee
4ee
8dd
16ee
16dd
8cc
8a
=7
2ee
8dd
8cc
4a}
=8
{4a
4cc
8dd
8dd
4a
=9
2cc
8dd
8cc
4a}
=10
{8dd
8dd
4ee
8dd
16ee
16dd
8cc
8dd
=11
2cc
8dd
8cc
4a}
=12
{4a
4cc
8dd
8dd
4a
=13
2cc
8dd
8cc
4a}
=14
{8dd
8dd
4ee
8dd
16ee
16dd
8cc
8a
=15
2ee
8dd
8cc
4a}
=16
{4ee
4dd
8dd
16ee
16dd
8cc
8dd
=17
2cc
8dd
8cc
4a}
=18
{4a
4cc
8dd
8dd
4a
=19
2cc
8dd
8cc
4a}
=20
{8dd
8dd
4ee
8dd
16ee
16dd
8cc
8a
=21
2ee
8dd
8cc
4a}
=22
{4ee
4dd
8dd
16ee
16dd
8cc
8dd
=23
2cc
8dd
8cc
4a}
=24
{4a
4cc
8dd
4.dd
=25
2cc
8dd
8cc
4a}
=26
{4a
4cc
8dd
4.dd
=27
2cc
8dd
8cc
4a}
==
!!!AGN: Xiaodiao, Fengsuge, Longchuanqu
!!!ONB: ESAC (Essen Associative Code) Database: HUANG
!!!AMT: simple quadruple
!!!AIN: vox
!!!EED: Helmut Schaffrath
!!!EEV: 1.0
*-
